round/svg/list.svg

<svg xmlns="http://www.w3.org/2000/svg" width="24" height="24"><g fill="none"><path d="M0 0h24v24H0V0z"/><path opacity=".87" d="M0 0h24v24H0V0z"/></g><g fill="currentColor"><path d="M4 13c.55 0 1-.45 1-1s-.45-1-1-1-1 .45-1 1 .45 1 1 1zm0 4c.55 0 1-.45 1-1s-.45-1-1-1-1 .45-1 1 .45 1 1 1zm0-8c.55 0 1-.45 1-1s-.45-1-1-1-1 .45-1 1 .45 1 1 1zm4 4h12c.55 0 1-.45 1-1s-.45-1-1-1H8c-.55 0-1 .45-1 1s.45 1 1 1zm0 4h12c.55 0 1-.45 1-1s-.45-1-1-1H8c-.55 0-1 .45-1 1s.45 1 1 1zM7 8c0 .55.45 1 1 1h12c.55 0 1-.45 1-1s-.45-1-1-1H8c-.55 0-1 .45-1 1z"/><path d="M4 13c.55 0 1-.45 1-1s-.45-1-1-1-1 .45-1 1 .45 1 1 1zm0 4c.55 0 1-.45 1-1s-.45-1-1-1-1 .45-1 1 .45 1 1 1zm0-8c.55 0 1-.45 1-1s-.45-1-1-1-1 .45-1 1 .45 1 1 1zm4 4h12c.55 0 1-.45 1-1s-.45-1-1-1H8c-.55 0-1 .45-1 1s.45 1 1 1zm0 4h12c.55 0 1-.45 1-1s-.45-1-1-1H8c-.55 0-1 .45-1 1s.45 1 1 1zM7 8c0 .55.45 1 1 1h12c.55 0 1-.45 1-1s-.45-1-1-1H8c-.55 0-1 .45-1 1z"/></g></svg>

<?xml version="1.0" encoding="utf-8"?>
<!-- Generator: Adobe Illustrator 19.1.0, SVG Export Plug-In . SVG Version: 6.00 Build 0)  -->
<svg version="1.1" xmlns="http://www.w3.org/2000/svg" xmlns:xlink="http://www.w3.org/1999/xlink" x="0px" y="0px" width="24px"
	 height="24px" viewBox="0 0 24 24" enable-background="new 0 0 24 24" xml:space="preserve">
<g id="Header_x2F_BG" display="none">
	<rect x="-358" y="-94" display="inline" fill="#F1F1F2" width="520" height="520"/>
</g>
<g id="Bounding_Boxes">
	<g id="ui_x5F_spec_x5F_header_copy_3" display="none">
	</g>
	<path fill="none" d="M0,0h24v24H0V0z"/>
	<path opacity="0.87" fill="none" d="M0,0h24v24H0V0z"/>
</g>
<g id="Rounded" fill="currentColor">
	<g id="ui_x5F_spec_x5F_header_copy_5" display="none">
	</g>
	<path d="M4,13L4,13c0.55,0,1-0.45,1-1v0c0-0.55-0.45-1-1-1h0c-0.55,0-1,0.45-1,1v0C3,12.55,3.45,13,4,13z M4,17L4,17
		c0.55,0,1-0.45,1-1v0c0-0.55-0.45-1-1-1h0c-0.55,0-1,0.45-1,1v0C3,16.55,3.45,17,4,17z M4,9L4,9c0.55,0,1-0.45,1-1v0
		c0-0.55-0.45-1-1-1h0C3.45,7,3,7.45,3,8v0C3,8.55,3.45,9,4,9z M8,13h12c0.55,0,1-0.45,1-1v0c0-0.55-0.45-1-1-1H8
		c-0.55,0-1,0.45-1,1v0C7,12.55,7.45,13,8,13z M8,17h12c0.55,0,1-0.45,1-1v0c0-0.55-0.45-1-1-1H8c-0.55,0-1,0.45-1,1v0
		C7,16.55,7.45,17,8,17z M7,8L7,8c0,0.55,0.45,1,1,1h12c0.55,0,1-0.45,1-1v0c0-0.55-0.45-1-1-1H8C7.45,7,7,7.45,7,8z"/>
	<path d="M4,13L4,13c0.55,0,1-0.45,1-1v0c0-0.55-0.45-1-1-1h0c-0.55,0-1,0.45-1,1v0C3,12.55,3.45,13,4,13z M4,17L4,17
		c0.55,0,1-0.45,1-1v0c0-0.55-0.45-1-1-1h0c-0.55,0-1,0.45-1,1v0C3,16.55,3.45,17,4,17z M4,9L4,9c0.55,0,1-0.45,1-1v0
		c0-0.55-0.45-1-1-1h0C3.45,7,3,7.45,3,8v0C3,8.55,3.45,9,4,9z M8,13h12c0.55,0,1-0.45,1-1v0c0-0.55-0.45-1-1-1H8
		c-0.55,0-1,0.45-1,1v0C7,12.55,7.45,13,8,13z M8,17h12c0.55,0,1-0.45,1-1v0c0-0.55-0.45-1-1-1H8c-0.55,0-1,0.45-1,1v0
		C7,16.55,7.45,17,8,17z M7,8L7,8c0,0.55,0.45,1,1,1h12c0.55,0,1-0.45,1-1v0c0-0.55-0.45-1-1-1H8C7.45,7,7,7.45,7,8z"/>
</g>
<g id="Sharp" display="none">
	<g id="ui_x5F_spec_x5F_header_copy_4">
	</g>
	<path display="inline" d="M3,13h2v-2H3V13z M3,17h2v-2H3V17z M3,9h2V7H3V9z M7,13h14v-2H7V13z M7,17h14v-2H7V17z M7,7v2h14V7H7z"/>
	<path display="inline" d="M3,13h2v-2H3V13z M3,17h2v-2H3V17z M3,9h2V7H3V9z M7,13h14v-2H7V13z M7,17h14v-2H7V17z M7,7v2h14V7H7z"/>
</g>
<g id="Outline" display="none">
	<g id="ui_x5F_spec_x5F_header">
	</g>
	<path display="inline" d="M3,13h2v-2H3V13z M3,17h2v-2H3V17z M3,9h2V7H3V9z M7,13h14v-2H7V13z M7,17h14v-2H7V17z M7,7v2h14V7H7z"/>
	<path display="inline" d="M3,13h2v-2H3V13z M3,17h2v-2H3V17z M3,9h2V7H3V9z M7,13h14v-2H7V13z M7,17h14v-2H7V17z M7,7v2h14V7H7z"/>
</g>
<g id="Duotone" display="none">
	<g id="ui_x5F_spec_x5F_header_copy_2">
	</g>
	<path display="inline" d="M3,13h2v-2H3V13z M3,17h2v-2H3V17z M3,9h2V7H3V9z M7,13h14v-2H7V13z M7,17h14v-2H7V17z M7,7v2h14V7H7z"/>
	<path display="inline" d="M3,13h2v-2H3V13z M3,17h2v-2H3V17z M3,9h2V7H3V9z M7,13h14v-2H7V13z M7,17h14v-2H7V17z M7,7v2h14V7H7z"/>
</g>
<g id="Material" display="none">
	<g id="ui_x5F_spec_x5F_header_copy">
	</g>
	<path display="inline" d="M3,13h2v-2H3V13z M3,17h2v-2H3V17z M3,9h2V7H3V9z M7,13h14v-2H7V13z M7,17h14v-2H7V17z M7,7v2h14V7H7z"/>
</g>
</svg>
